X:1
T:If Jesus Goes With Me
T:If Jesus Goes With Me
T:Charles Austin Miles
T:Charles Austin Miles, 1908
T:Public Domain Courtesy of the Cyber Hymnal™
T:Public Domain Courtesy of the Cyber Hymnal™
C:Charles Austin Miles
Z:Public Domain
Z:Courtesy of the Cyber Hymnal™
%%score ( 1 2 ) ( 3 4 )
L:1/8
Q:1/4=110
M:6/8
K:C
V:1 treble 
V:2 treble 
V:3 bass 
V:4 bass 
V:1
 [CE] | [EG]2 [EA] [CE]2 [B,D] | C3 [Ec]2 [EB] | [FA]2 [Fc] [Fc]2 [FA] | [EG]3- [EG]2 [CE] | %5
w: 1.~It|may be in the|val- ley, where|count- less dan- gers|hide; * It|
w: 2.~It|may be I must|car- ry the|bless- èd Word of|life * A-|
w: 3.~But|if it be my|por- tion to|bear my cross at|home, * While|
w: 4.~It|is not mine to|quest- ion the|judg- ment of my|Lord, * It|
 [EG]2 [EA] [CE]2 [B,D] C3 [Ec]2 [EB] | [DB]2 [GB] [^FA]2 [FA] | G3- G2 [FG] | %8
w: may be in the sun- shine that|I, in peace, a-|bide; * But|
w: cross the burn- ing des- erts to|those in sin- ful|strife; * And|
w: o- thers bear their bur- dens be-|yond the bil- low’s|foam, * I’ll|
w: is but mine to fol- low the|lead- ings of His|Word; * But|
 [FB]2 [FB] [FA]2 [FG] | [FB]3- [FB]2 [FB] | [Ec]2 [Ec] [CE]2 [FA] | [EG]3- [EG]2 [Ec] | %12
w: this one thing I|know— * if|it be dark or|fair, * If|
w: though it be my|lot * to|bear my col- ors|there, * If|
w: prove my faith in|Him— * con-|fess His judg- ments|fair, * If|
w: if to go or|stay, * or|whe- ther here or|there, * I’ll|
 [Fd]3 [Fc]2 [FA] | [EG] [Ec]4 [CE] | [B,G]3 [B,F]2 [B,D] | C3- =C2 ||"^Refrain" [CE] | %17
w: Je- sus is|with me, I’ll|go an- y-|where! *||
w: Je- sus goes|with me, I’ll|go an- y-|where! *||
w: Je- sus stays|with me, I’ll|stay an- y-|where! *||
w: be, with my|Sav- ior, con-|tent an- y-|where! *||
 [EG]>[FA][EG] [CE]>[CD]C | [EG]3- [EG]3 | [Ec]3 [EA]3 | [FB]3- [FB]2 [FB] | %21
w: ||||
w: ||||
w: ||||
w: ||||
 [FB][Fd][FB] [FA]2 [FA] | [FB][Fd][FB] [FA]2 [FA] | [GB]3 [FA]3 x | [EG]3- [EG]2 [EG] | %25
w: ||||
w: ||||
w: ||||
w: ||||
 [EG]>[FA][EG] [CE]>[CD]C | [EG]3- [EG]2 [EG] | [Ec]3 [GB]3 | [FA]3- [FA]2 [GB] | %29
w: ||||
w: ||||
w: ||||
w: ||||
 [Ac]>[^GB][Ac] [Ad][Ac][FA] | (G3 c3) | [Ge]3 [Fd]3 x | [Ec]4- [Ec] |] %33
w: ||||
w: ||||
w: ||||
w: ||||
V:2
 x | x6 | C3 x3 | x6 | x6 | x6 C3 x3 | x6 | G3- G2 x | x6 | x6 | x6 | x6 | x6 | x6 | x6 | C3 =C2 || %16
 x | x6 | x6 | x6 | x6 | x6 | x6 | x7 | x6 | x6 | x6 | x6 | x6 | x6 | E6 | x7 | x5 |] %33
V:3
 [C,G,] | [C,C]2 [C,C] [C,G,]2 [G,,F,] | [C,E,]3 [C,G,]2 [C,C] | [F,C]2 [F,A,] [F,A,]2 [F,C] | %4
w: ~|~ ~ ~ ~|~ ~ ~|~ ~ ~ ~|
 [C,C]3- [C,C]2 [C,G,] | [C,C]2 [C,C] [C,G,]2 [G,,F,] [C,E,]3 [C,G,]2 [C,C] | %6
w: ~ * ~|~ ~ ~ ~ ~ ~ ~|
 [D,G,]2 [D,B,] [D,C]2 [D,C] | [G,B,]3- [G,B,]2 [G,B,] | [G,D]2 [G,D] [G,C]2 [G,B,] | %9
w: ~ ~ ~ ~|~ * ~|~ ~ ~ ~|
 [G,D]3- [G,D]2 [G,D] | [C,C]2 [C,G,] [C,G,]2 [C,C] | [C,C]3- [C,C]2 [C,G,] | %12
w: ~ * ~|~ ~ ~ ~|~ * ~|
 [F,A,]3 [F,A,]2 [F,C] | [C,C] [C,G,]4 [C,G,] | [G,,G,]3 [G,,G,]2 [G,,F,] | [C,E,]3- [C,E,]2 || %16
w: ~ ~ ~|~ ~ ~|~ ~ ~|~ *|
 [C,G,] | [C,C]>[C,C][C,C] [C,G,]>[C,F,][C,E,] | ([C,C]2 [C,C] [C,C]3) | [C,C]3 [C,C]3 | %20
w: If|Je- sus goes with me, I’ll|go * *|an- y-|
 [G,D]3- [G,D]2 [G,D] | [G,D][G,B,][G,D] [G,D]2 [G,D] | [G,D][G,B,][G,D] [G,D]2 [G,D] | %23
w: where! * ’Tis|heav- en to me, wher-|e’er I may be, if|
 (z2 G,3) x2 | [C,C]3- [C,C]2 [C,C] | [C,C]>[C,C][C,C] [C,G,]>[C,F,][C,E,] | %26
w: |He * is|there! I count it a priv-|
 ([C,C]2 [C,C] [C,C]2) [C,C] | [C,G,]3 [E,C]3 | ([F,C]2 [F,C] [F,C]2) [F,C] | %29
w: i- * * lege|here, His|cross * * to|
 [F,C]>[F,C][F,C] [F,C][F,C][F,C] | ([C,-C]3 [C,G,]3) | (z2 G,3) x2 | [C,G,]4- [C,G,] |] %33
w: bear, If Je- sus goes with|me, *||I’ll *|
V:4
 x | x6 | x6 | x6 | x6 | x12 | x6 | x6 | x6 | x6 | x6 | x6 | x6 | x6 | x6 | x5 || x | x6 | x6 | %19
 x6 | x6 | x6 | x6 | (G,3 G,,) (A,,2 B,,) | x6 | x6 | x6 | x6 | x6 | x6 | x6 | %31
 (G,3 G,,) (A,,2 B,,) | x5 |] %33

